T: Tour De Harris
M: 4/4
L: 1/8
K: Amaj
BcAc Bcec | BcAc BAFE | BcAc Bcec | BAFE A4 |
BcAc Bcec | Bcec BAFE | BcAc Bcec | BAFE A4 ||
ceae feae | ceae fecB | ceae feaf | ecBc A3B |
ceae feae | feae fecB | ceae feaf | ecBc A4 |]
